8/img/border.svg

<svg width="162" height="72" viewBox="0 0 162 72" fill="none" xmlns="http://www.w3.org/2000/svg">
<path fill-rule="evenodd" clip-rule="evenodd" d="M159 1H3C1.89543 1 1 1.89543 1 3V69C1 70.1046 1.89543 71 3 71H10V72H3C1.34314 72 0 70.6569 0 69V3C0 1.34315 1.34315 0 3 0H159C160.657 0 162 1.34315 162 3V69C162 70.6569 160.657 72 159 72H152V71H159C160.105 71 161 70.1046 161 69V3C161 1.89543 160.105 1 159 1Z" fill="#CDCDCD"/>
</svg>

<svg width="162" height="72" fill="none" xmlns="http://www.w3.org/2000/svg"><path fill-rule="evenodd" clip-rule="evenodd" d="M159 1H3a2 2 0 0 0-2 2v66a2 2 0 0 0 2 2h7v1H3a3 3 0 0 1-3-3V3a3 3 0 0 1 3-3h156a3 3 0 0 1 3 3v66a3 3 0 0 1-3 3h-7v-1h7a2 2 0 0 0 2-2V3a2 2 0 0 0-2-2Z" fill="#CDCDCD"/></svg>
